X: 2247
T: Ba' Rag, The
R: reel
M: 4/4
K: Gmajor
|:AB{c}Bc BAGF|E(c ~c2) cdeg|dB (3BBB gabg|ef{g}fe fedc|
AB{c}Bc BAGF|Eceg agbg|dBgB abgd|cABA G3 A:|
|:BDDd DDAc|BDcD dBdB|g2 gb agfd|cAFG ABcA|
BDDd DDAc|BDcD dBdB|g2 gb agfd|cABA G3 A:|
|:GGBG GBGG|BGGB AGED|GGBG GBGB|A3 B {c}BAGF|
GGBG GBGG|BGGB AGED|B d3 ~d3 d|1 {e}dBBA BAGF:|2 {e}dBBA BAGA||

